X:8
T:s Olmlbn
C:Trad.
N:Aufzeichnungen von Karl Reiterer
B:Sngerzeitung, Nr. 5/6, 1931
I:160
M:6/8
L:1/8
K:C
E G | c>c c c e c | B e d2 G G | d>d d e f B | c e c2 E G |
 c>c c c e c | B e d2 E G | d>d d e f B |c2 z2 ||
